X: 06034
T: JILL'S JIG #2
C: Bob McQuillen 12 Aug 82
B: Bob's Note Book 6 #34
%R: jig
Z: 2021 John Chambers <jc:trillian.mit.edu>
M: 6/8
L: 1/8
K: D
|:DFA AFA | Bdf e2a | faf ede | fef dBA |\
| FEF AFA | Bdf e2d | fef dBd | ABA FEF :|
|:faf edB | def edB | Adf afe | fdf e2e |\
| fed B2d | AFD EFE | DFA Adf | afd e2d :|
%%begintext align
%% This Jill's Jig (there's another in Book 4) is for
%% one of my favorite school girls named
%% Jill Erickson from Temple, N.H. - Love you
%% always, Jill - & I hope you like this tune!
%% Mac Baby
%%endtext

%%sep 1 1 500

%%sep 1 1 500

